X:1
T:Gigi  L'amoroso
T: Laukens Music Productions  
T:Tarantella
T:GIGI L'AMOROSO
T:L. Sebastian
C:Lana Sebastian
Z:All Rights Reserved
L:1/8
Q:1/4=190
M:6/8
K:F
V:1 treble nm="MusicXML Part"
%%MIDI program 0
%%MIDI control 7 102
%%MIDI control 10 64
V:1
 z AB cBA |"F" c6- | cAB cBA |"Fmaj7" e6- | e6 | z6 | z AB cBA |:"F" c6 | z AB cBA |"Fmaj7" e6- | %10
 e3 z2 g | g2 f f2 e | ede d2 A |"Gm" B6 | z GA BAG | B6 | z GA BAG | d6- | d3 z2 d | g2 g f2 f | %20
 e2 e d2 _d |"C7" c6 | z AB cBA |"F" c6 | z AB cBA |"Fmaj7" e6- | e3 z2 e | g2 g f2 f | ede d2 A | %29
"Gm" B6 | z GA BAG | B6 | z GA BAG | d6- | d3 z2 d |"C7" g2 g"Gm7" f2 f |"C7" e2 e"Gm7" d2 _d | %37
"C" c6- | c3 z2 c | c2 c c2 d | e3 z2 e | e2 e e2 f | g6 |"C" c6 |"F" A6 |"C" c6S ||"F" a2 g f2 e | %47
 g3 f3- | f6 | z2 f f2 g |"Fmaj7" e2 e e2 f |"F6" d2 d d2 e |"Gm" c3 B3- | B4 z2 | g2 g g2 ^f | %55
"Gm" a3 g3- | g6 | z2 g g2 a |"Gm7" f2 f f2 g |"G6" e3 z cd |"C7" e2 f2 e2 |"F" d3 A3- | A3 z2 A | %63
"D7" A2 B B2 c | c2 _e e2 d |"Gm" d6- | d3 z2 =B |"E7" =B3 ccd | d2 d ffe |"C7" g3 g3- |1 g2 z z3 | %71
 z AB cBA :|2"C" g2 z c3 ||"F" A3 c3S |] %74

